X: 1781
T: Orphan Boy Waltz
C:Joseph Lanner (1801 - 1843)
B: australian traditional tunes wiki
M:3/4
L:1/8
R: Waltz
Q: 1/4=160
K:G
V:1 
|:"G"G2B2B2|B2A2B2|d2g2B2|d6|1"D"c2e2A2|c6|"G"d2g2B2|d6:|2"C"c2e2e2|"D"d2f2f2|"G"a2g2g2|g4z2||
|:"G"g6|"D"f4c2|"C"e2eded|"G"G4B2|"D"c2cBcB|1F2A2c2|c2cBcB|"G"G2B2d2:|2E2F2A2|"G"G3GG2|G2z4||
|:"G"G2B2B2|B2A2B2|d2g2B2|d6|1"D"c2e2A2|c6|"G"d2g2B2|d6:|2"C"c2e2e2|"D"d2f2f2|"G"a2g2g2|g4z2||
|:D2|"G"B2BAGE|D2G2B2|e2d3B|d4e2|d3dB2|1"C"c2E2G2|"D"e2d3c|"G"B4:|2"D7"c2E2F2|"G"G3G"C"G2|"G"G2z2B2||
|"G"d4d2|G2B2d2|g4f2|B2d2g2|"D7"f4f2|A2c2d2|"G"e2d3B|G4d2|
"G"g4g2|B2d2g2|"D"f4f2|d2e2f2|"G"g3gg2|g2z2BB|d2d2d2|g2g2g2|
"G"ba gf ed|"D"c2c2c2|ag fe dc|"G"B2B2dd|"D"f3ff2|e4f2|"G"g3gg2|g2||
% abcbook-tune_id 6342d53a3432a71278e7f1ff


% abcbook-boost 0
% abcbook-tablature 
% abcbook-transpose 
% abcbook-lastupdated 1665324383500
% abcbook-soundfonts 
% abcbook-repeats 1
% NFF Book 2020

